X: 35328
T: Rosemary Lane
R: jig
M: 6/8
K: Dmajor
|:A/B/|FEF DFA|dce dcB|AdB AFD|EFD EAG|
FEF DFA|dce dcB|Ade faf|gec d2:|
|:f/g/|aba fed|gag ecA|fed Bcd|edB ABc|
ded AFA|Bed cBA|faf gec|Adc d2:|

